archdroid-icon-theme/Archdroid-DeepOrange/apps/scalable/preferences-system-firewall.svg

<svg fill="#FF5722" height="48" viewBox="0 0 48 48" width="48" xmlns="http://www.w3.org/2000/svg"><path d="m26 16v16h-4v-16zm9.54-5.04-3.08 2.55 8.7 10.49-8.7 10.48 3.08 2.55 10.82-13.03zm-5.54 11.04v4h4v-4zm-16 0v4h4v-4zm1.54-8.48-3.08-2.55-10.82 13.03 10.82 13.04 3.08-2.55-8.7-10.49z" fill="#FF5722"/></svg>

<svg fill="#FF5722" height="48" version="1.1" viewBox="0 0 48 48" width="48" xmlns="http://www.w3.org/2000/svg"><path d="m26 16l0 16-4 0 0-16 4 0zM35.54 10.96L32.46 13.51 41.16 24 32.46 34.48 35.54 37.03 46.36 24 35.54 10.96ZM30 22l0 4 4 0 0-4-4 0zm-16 0l0 4 4 0 0-4-4 0zM15.54 13.52L12.46 10.97 1.64 24 12.46 37.04 15.54 34.49 6.84 24 15.54 13.52Z" fill="#FF5722"/></svg>
